Configs/Linux/Debian/fjrodafo/.config/eww/icons/Power_Menu/Reboot.svg

<?xml version="1.0" encoding="UTF-8" standalone="no"?>
<svg
  width="800px"
  height="800px"
  viewBox="0 0 24 24"
  fill="none"
  version="1.1"
  id="svg1"
  sodipodi:docname="Reboot.svg"
  inkscape:export-filename="Reboot.png"
  inkscape:export-xdpi="96"
  inkscape:export-ydpi="96"
  inkscape:version="1.4 (e7c3feb, 2024-10-09)"
  xmlns:inkscape="http://www.inkscape.org/namespaces/inkscape"
  xmlns:sodipodi="http://sodipodi.sourceforge.net/DTD/sodipodi-0.dtd"
  xmlns="http://www.w3.org/2000/svg"
  xmlns:svg="http://www.w3.org/2000/svg"
>
  <defs
    id="defs1"
  />
  <sodipodi:namedview
    id="namedview1"
    pagecolor="#ffffff"
    bordercolor="#000000"
    borderopacity="0.25"
    inkscape:showpageshadow="2"
    inkscape:pageopacity="0.0"
    inkscape:pagecheckerboard="true"
    inkscape:deskcolor="#d1d1d1"
    inkscape:zoom="1"
    inkscape:cx="200"
    inkscape:cy="200"
    inkscape:window-width="1852"
    inkscape:window-height="1066"
    inkscape:window-x="61"
    inkscape:window-y="7"
    inkscape:window-maximized="1"
    inkscape:current-layer="svg1"
  />
  <path
    d="M3 12C3 16.9706 7.02944 21 12 21C14.3051 21 16.4077 20.1334 18 18.7083L21 16M21 12C21 7.02944 16.9706 3 12 3C9.69494 3 7.59227 3.86656 6 5.29168L3 8M21 21V16M21 16H16M3 3V8M3 8H8"
    stroke="#000000"
    stroke-width="2"
    stroke-linecap="round"
    stroke-linejoin="round"
    id="path1"
    style="stroke:#ffffff;stroke-opacity:1"
  />
</svg>

<svg xmlns="http://www.w3.org/2000/svg" id="svg1" width="800" height="800" fill="none" viewBox="0 0 24 24"><path id="path1" stroke="#000" stroke-linecap="round" stroke-linejoin="round" stroke-width="2" d="M3 12a9 9 0 0 0 15 6.708L21 16m0-4A9 9 0 0 0 6 5.292L3 8m18 13v-5m0 0h-5M3 3v5m0 0h5" style="stroke:#fff;stroke-opacity:1"/></svg>
